packages/foundations/assets/icons/functional/images/logos/subway_inverted.svg

<svg xmlns="http://www.w3.org/2000/svg" width="32" height="32" fill="none"><path fill="#1A1C1F" fill-rule="evenodd" d="M7.749 12.947c.02 4.535.048 6.787.089 7.075.075.523.38 1.481.629 1.978.583 1.162 1.647 2.193 2.854 2.766 2.328 1.104 5.763 1.259 8.401.379 1.777-.593 3.063-1.655 3.811-3.145.25-.497.554-1.455.629-1.978.041-.287.069-2.553.089-7.075l.028-6.654h-4.866l-.005 4.094a552 552 0 0 1-.043 6.413l-.036 2.32-.141.391a3.34 3.34 0 0 1-.814 1.299 3.26 3.26 0 0 1-1.273.833c-.34.124-.458.139-1.101.139-.614 0-.771-.018-1.067-.122a3.3 3.3 0 0 1-1.282-.827c-.429-.431-.661-.81-.861-1.407l-.157-.464-.032-6.334-.031-6.335H7.721z"/></svg>

<svg width="32" height="32" viewBox="0 0 32 32" fill="none" xmlns="http://www.w3.org/2000/svg"><path d="M7.749 12.947 C 7.769 17.482,7.797 19.734,7.838 20.022 C 7.913 20.545,8.218 21.503,8.467 22.000 C 9.050 23.162,10.114 24.193,11.321 24.766 C 13.649 25.870,17.084 26.025,19.722 25.145 C 21.499 24.552,22.785 23.490,23.533 22.000 C 23.783 21.503,24.087 20.545,24.162 20.022 C 24.203 19.735,24.231 17.469,24.251 12.947 L 24.279 6.293 21.846 6.293 L 19.413 6.293 19.408 10.387 C 19.405 12.638,19.386 15.524,19.365 16.800 L 19.329 19.120 19.188 19.511 C 19.000 20.035,18.760 20.418,18.374 20.810 C 17.978 21.213,17.598 21.461,17.101 21.643 C 16.761 21.767,16.643 21.782,16.000 21.782 C 15.386 21.782,15.229 21.764,14.933 21.660 C 14.442 21.486,14.048 21.232,13.651 20.833 C 13.222 20.402,12.990 20.023,12.790 19.426 L 12.633 18.962 12.601 12.628 L 12.570 6.293 10.145 6.293 L 7.721 6.293 7.749 12.947 " fill="#1A1C1F" stroke="none" fill-rule="evenodd"></path></svg>
